X:1
T:Title
%%score { ( 1 3 ) | ( 2 4 ) }
L:1/8
M:4/4
K:C
V:1 treble nm="Grand Piano"
V:3 treble 
V:2 bass 
V:4 bass 
V:1
 z4 z2[Q:1/4=100] E>D | C2 C2 [Ec]3 [EB] | B2 A2 z2 A2 | [EG]3 [CE] [CE]2 DC | [B,D]6 [CE]>[B,D] | %5
 C2 C2 [Ec]3 [EB] | B2 A2 z2 A2 | [EG]2 [CE]2[K:bass] z2 F,[K:treble]C |[M:3/4] C6 | %9
[M:1/4] [EG]>[EG] |[M:4/4] [Ec]3 [Gc] d3 d | e6 [EG]>[EG] | [Ec]3 [Gc] d3 d | e6 [^Ge]>[Gd] | %14
 c- [Fc]2 B A c2 A | [EG]2 E4 E>D | C [Ec]2 [CE] [B,D]3 C |[M:3/4] C6 |] %18
V:2
 z4 z2 [C,G,C]>[C,F,B,] | [C,E,]2 [C,E,]2 [C,G,]3 [C,G,] | [F,^G,F]2 [F,A,F]2 z2 [F,CF]2 | %3
 [C,C]3 [C,G,] [A,,A,]2 [D,^F,A,]2 | [G,,G,]6 [G,,G,]>[G,,F,] | [C,E,]2 [C,E,]2 [C,G,]3 [C,G,] | %6
 [F,^G,F]2 [F,A,F]2 z2 [F,CF]2 | [C,C]2 [C,G,]2 G,2 z [C,E,] |[M:3/4] [C,E,]6 | %9
[M:1/4] [C,C]>[C,C] |[M:4/4] [C,G,]3 [E,C][K:treble] [G,B,G]3 [G,B,G] | [CG]6[K:bass] [C,C]>[C,C] | %12
 [C,G,]3 [E,C][K:treble] [G,B,G]3 [G,B,G] | [CG]6[K:bass] [E,B,]>[E,B,] | z4 .F2 z2 | %15
 [C,C]2 [C,G,C]4 [C,G,C]>[C,F,B,] | [C,E,] [C,G,]2 [C,G,] [G,,F,]3 [C,E,] |[M:3/4] [C,E,]6 |] %18
V:3
 x8 | x8 | x8 | x8 | x8 | x8 | x8 | z4[K:bass] [B,D]4[K:treble] |[M:3/4] x6 |[M:1/4] x2 | %10
[M:4/4] x8 | x8 | x8 | x8 | .A2 z2 z4 | x8 | x8 |[M:3/4] x6 |] %18
V:4
 x8 | x8 | x8 | x8 | x8 | x8 | x8 | z4 G,,4 |[M:3/4] x6 |[M:1/4] x2 |[M:4/4] x4[K:treble] x4 | %11
 x6[K:bass] x2 | x4[K:treble] x4 | x6[K:bass] x2 | [F,A,]3 [F,DF] [F,C]- [F,CA]2 [F,CF] | x8 | x8 | %17
[M:3/4] x6 |] %18

